resources/static/img/icons/cart.svg

<?xml version="1.0" encoding="UTF-8" standalone="no"?>
<svg
   xmlns:dc="http://purl.org/dc/elements/1.1/"
   xmlns:cc="http://creativecommons.org/ns#"
   xmlns:rdf="http://www.w3.org/1999/02/22-rdf-syntax-ns#"
   xmlns:svg="http://www.w3.org/2000/svg"
   xmlns="http://www.w3.org/2000/svg"
   style="fill:none"
   id="svg15"
   version="1.1"
   viewBox="0 0 32 28.1252"
   height="28.1252"
   width="32">
  <metadata
     id="metadata19">
    <rdf:RDF>
      <cc:Work
         rdf:about="">
        <dc:format>image/svg+xml</dc:format>
        <dc:type
           rdf:resource="http://purl.org/dc/dcmitype/StillImage" />
      </cc:Work>
    </rdf:RDF>
  </metadata>
  <g
     transform="translate(0,-1.9375)"
     id="g8"
     clip-path="url(#clip0)">
    <path
       style="fill:#395781"
       id="path2"
       d="m 10.375,20.6877 h 16.9377 c 0.4195,0 0.7874,-0.2773 0.9009,-0.6801 L 31.9639,6.88232 C 32.0444,6.59937 31.9893,6.29541 31.8118,6.0603 31.634,5.82593 31.3577,5.6875 31.0627,5.6875 H 8.21069 L 7.54053,2.67188 C 7.44531,2.24243 7.06445,1.9375 6.625,1.9375 H 0.9375 C 0.419434,1.9375 0,2.35693 0,2.875 0,3.39331 0.419434,3.8125 0.9375,3.8125 h 4.93506 l 3.3855,15.2344 C 8.26196,19.48 7.5625,20.4714 7.5625,21.6252 c 0,1.5508 1.26172,2.8125 2.8125,2.8125 h 16.9377 c 0.5184,0 0.9375,-0.4191 0.9375,-0.9375 0,-0.518 -0.4191,-0.9375 -0.9375,-0.9375 H 10.375 c -0.51636,0 -0.9375,-0.4201 -0.9375,-0.9375 0,-0.5173 0.42114,-0.9375 0.9375,-0.9375 z" />
    <path
       style="fill:#395781"
       id="path4"
       d="m 9.4375,27.2502 c 0,1.5511 1.2617,2.8125 2.8127,2.8125 1.5508,0 2.8125,-1.2614 2.8125,-2.8125 0,-1.5507 -1.2617,-2.8125 -2.8125,-2.8125 -1.551,0 -2.8127,1.2618 -2.8127,2.8125 z" />
    <path
       style="fill:#395781"
       id="path6"
       d="m 22.6252,27.2502 c 0,1.5511 1.2618,2.8125 2.8125,2.8125 1.5511,0 2.8125,-1.2614 2.8125,-2.8125 0,-1.5507 -1.2614,-2.8125 -2.8125,-2.8125 -1.5507,0 -2.8125,1.2618 -2.8125,2.8125 z" />
  </g>
  <defs
     id="defs13">
    <clipPath
       id="clip0">
      <rect
         style="fill:#ffffff"
         y="0"
         x="0"
         id="rect10"
         height="32"
         width="32" />
    </clipPath>
  </defs>
</svg>

<svg width="32" height="32" viewBox="0 0 32 32" fill="none" xmlns="http://www.w3.org/2000/svg">
<g clip-path="url(#clip0)">
<path d="M10.375 20.6877H27.3127C27.7322 20.6877 28.1001 20.4104 28.2136 20.0076L31.9639 6.88232C32.0444 6.59937 31.9893 6.29541 31.8118 6.0603C31.634 5.82593 31.3577 5.6875 31.0627 5.6875H8.21069L7.54053 2.67188C7.44531 2.24243 7.06445 1.9375 6.625 1.9375H0.9375C0.419434 1.9375 0 2.35693 0 2.875C0 3.39331 0.419434 3.8125 0.9375 3.8125H5.87256L9.25806 19.0469C8.26196 19.48 7.5625 20.4714 7.5625 21.6252C7.5625 23.176 8.82422 24.4377 10.375 24.4377H27.3127C27.8311 24.4377 28.2502 24.0186 28.2502 23.5002C28.2502 22.9822 27.8311 22.5627 27.3127 22.5627H10.375C9.85864 22.5627 9.4375 22.1426 9.4375 21.6252C9.4375 21.1079 9.85864 20.6877 10.375 20.6877Z" fill="#395781"/>
<path d="M9.4375 27.2502C9.4375 28.8013 10.6992 30.0627 12.2502 30.0627C13.801 30.0627 15.0627 28.8013 15.0627 27.2502C15.0627 25.6995 13.801 24.4377 12.2502 24.4377C10.6992 24.4377 9.4375 25.6995 9.4375 27.2502Z" fill="#395781"/>
<path d="M22.6252 27.2502C22.6252 28.8013 23.887 30.0627 25.4377 30.0627C26.9888 30.0627 28.2502 28.8013 28.2502 27.2502C28.2502 25.6995 26.9888 24.4377 25.4377 24.4377C23.887 24.4377 22.6252 25.6995 22.6252 27.2502Z" fill="#395781"/>
</g>
<defs>
<clipPath id="clip0">
<rect width="32" height="32" fill="white"/>
</clipPath>
</defs>
</svg>
